svgs/asphalt_legends.svg

<svg width="192" height="192" viewBox="0 0 192 192" fill="none" xmlns="http://www.w3.org/2000/svg">
<path d="M80.5267 161.711L96 170L148.833 141.696C150.783 140.652 152 138.619 152 136.408V101.818M80.5267 161.711L66.0718 153.967C62.8821 152.258 61.9194 148.136 64.0225 145.191L148.372 27.0795C149.503 25.4961 152 26.2961 152 28.2419V62.002L80.5267 161.711ZM95.7781 22H46C42.6863 22 40 24.6863 40 28V60M95.7781 22H120.264C121.89 22 122.837 23.8373 121.892 25.1612L43.6284 134.912C42.4982 136.497 40 135.697 40 133.751V99.8131L95.7781 22Z" stroke="black" stroke-width="12" stroke-linecap="round" stroke-linejoin="round"/>
</svg>

<svg xmlns="http://www.w3.org/2000/svg" width="192" height="192" fill="none" viewBox="0 0 192 192"><path stroke="#000" stroke-linecap="round" stroke-linejoin="round" stroke-width="12" d="M80.527 161.711 96 170l52.833-28.304a6 6 0 0 0 3.167-5.288v-34.59m-71.473 59.893-14.455-7.744a6 6 0 0 1-2.05-8.776l84.35-118.111c1.131-1.584 3.628-.784 3.628 1.162v33.76zM95.778 22H46a6 6 0 0 0-6 6v32m55.778-38h24.486c1.626 0 2.573 1.837 1.628 3.161L43.628 134.912c-1.13 1.585-3.628.785-3.628-1.161V99.813z"/></svg>
